images_elementary_svg/cmd/sc_insertcolumnsafter.svg

<svg viewBox="0 0 16 16" xmlns="http://www.w3.org/2000/svg" xmlns:xlink="http://www.w3.org/1999/xlink"><linearGradient id="a" gradientTransform="matrix(.59436 0 0 .5999 -19.265 -.033)" gradientUnits="userSpaceOnUse" x1="25.132" x2="25.132" y1="15.5" y2="48.396"><stop offset="0" stop-color="#fafafa"/><stop offset="1" stop-color="#e2e1de"/></linearGradient><linearGradient id="b" gradientTransform="matrix(-.34745 0 0 -.37307 21.79 32.638)" gradientUnits="userSpaceOnUse" x1="39.651" x2="23.715" y1="57.957" y2="58.393"><stop offset="0" stop-color="#fff"/><stop offset=".21" stop-color="#fff" stop-opacity=".235"/><stop offset=".859" stop-color="#fff" stop-opacity=".157"/><stop offset="1" stop-color="#fff" stop-opacity=".392"/></linearGradient><g transform="translate(0 2)"><rect fill="url(#a)" height="14" rx=".424" ry=".491" width="14" x="1" y="-1"/><path d="m.498-1.998c-.276 0-.5.224-.5.5l.002 14.998c0 .276.224.5.5.5h15c.276 0 .5-.224.5-.5l-.002-10.5h.002v-1h-.002v-3.498c0-.276-.224-.5-.5-.5zm.498.998h14.004v3h-4.002v-2.998h-1v2.998h-4v-2.998h-1v2.998h-4.002zm0 4h4.004v2h-4v1h4v3h-4v1h4v3h1v-3h4v3h1v-3h4v-1h-4v-3h4v3l.002 4.002h-14.004zm5.004 0h4v2h-4zm5 0h4v2h-4zm-5 3h4v3h-4z" fill="#030303" opacity=".32"/></g><path d="m10 15v-14h5v14z" fill="#9cde4a"/><path d="m10 15c0 .554.446 1 1 1h4c.554 0 1-.446 1-1v-14c0-.554-.446-1-1-1h-4c-.554 0-1 .446-1 1zm1 0v-14h4v14z" fill="#5ca12a"/><path d="m11 12v-1h4v1zm0-7v-1h4v1zm0 3v-1h4v1z" fill="#5ca12a"/><g stroke-miterlimit="7"><path d="m4.516 14.902 4.987-3.974-5.003-3.8v2.358l-4-.01.016 3.01 4 .01z" display="block" fill="#46a9eb" fill-opacity=".984" stroke="#2f78c8" stroke-linejoin="round"/><path d="m13.55 10.853-2.61-3.328-2.46 3.344h1.665l-.01 4 1.716-.017.01-4z" display="block" fill="none" stroke="url(#b)" stroke-width=".623" transform="matrix(0 1 -1 0 16.016 -.012)"/></g></svg>

<svg xmlns="http://www.w3.org/2000/svg" viewBox="0 0 16 16"><defs><linearGradient id="e" gradientTransform="matrix(.59436 0 0 .5999 -19.265 -.033)" gradientUnits="userSpaceOnUse" x1="25.132" x2="25.132" y1="15.5" y2="48.396"><stop offset="0" stop-color="#fafafa"/><stop offset="1" stop-color="#e2e1de"/></linearGradient><linearGradient id="a"><stop offset="0" stop-color="#fff"/><stop offset=".5" stop-color="#fff" stop-opacity=".235"/><stop offset=".951" stop-color="#fff" stop-opacity=".157"/><stop offset="1" stop-color="#fff" stop-opacity=".392"/></linearGradient><linearGradient id="c"><stop offset="0" stop-color="#fff"/><stop offset=".45" stop-color="#fff" stop-opacity=".235"/><stop offset=".65" stop-color="#fff" stop-opacity=".157"/><stop offset="1" stop-color="#fff" stop-opacity=".392"/></linearGradient><linearGradient id="b"><stop offset="0" stop-color="#cd9ef7"/><stop offset="1" stop-color="#a56de2"/></linearGradient><linearGradient id="d"><stop offset="0"/><stop offset="1" stop-opacity="0"/></linearGradient><linearGradient id="f" gradientTransform="matrix(-.34745 0 0 -.37307 21.79 32.638)" gradientUnits="userSpaceOnUse" x1="39.651" x2="23.715" y1="57.957" y2="58.393"><stop offset="0" stop-color="#fff"/><stop offset=".21" stop-color="#fff" stop-opacity=".235"/><stop offset=".859" stop-color="#fff" stop-opacity=".157"/><stop offset="1" stop-color="#fff" stop-opacity=".392"/></linearGradient></defs><g transform="translate(0 2)"><rect height="14" rx=".424" ry=".491" width="14" x="1" y="-1" fill="url(#e)"/><path d="M.498-1.998c-.276 0-.5.224-.5.5L0 13.5c0 .276.224.5.5.5h15c.276 0 .5-.224.5-.5L15.998 3H16V2h-.002v-3.498c0-.276-.224-.5-.5-.5zM.996-1H15v3h-4.002V-.998h-1V2h-4V-.998h-1V2H.996zm0 4H5v2H1v1h4v3H1v1h4v3h1v-3h4v3h1v-3h4V9h-4V6h4v3l.002 4.002H.998zM6 3h4v2H6zm5 0h4v2h-4zM6 6h4v3H6z" opacity=".32" fill="#030303"/></g><path d="M10 15V1h5v14z" fill="#9cde4a"/><path d="M10 15c0 .554.446 1 1 1h4c.554 0 1-.446 1-1V1c0-.554-.446-1-1-1h-4c-.554 0-1 .446-1 1zm1 0V1h4v14z" fill="#5ca12a"/><path fill="#5ca12a" d="M11 12v-1h4v1zM11 5V4h4v1zM11 8V7h4v1z"/><g stroke-miterlimit="7"><path d="M4.516 14.902l4.987-3.974-5.003-3.8v2.358l-4-.01.016 3.01 4 .01z" display="block" fill="#46a9eb" fill-opacity=".984" stroke="#2f78c8" stroke-linejoin="round"/><path display="block" d="M13.55 10.853l-2.61-3.328-2.46 3.344h1.665l-.01 4 1.716-.017.01-4z" fill="none" stroke="url(#f)" stroke-width=".623" transform="rotate(90 8.014 8.002)"/></g></svg>
